# Auto-generated UR Script from pattern generator

def execute_pattern():
  movej([0.15, -1.57, 1.63, 0.0, 1.67, 0.0], a=1.2, v=0.6)
  movej([0.1499, -1.5662, 1.6299, 0.0084, 1.6696, 0.0021], a=1.2, v=0.6)
  movej([0.1495, -1.5625, 1.6298, 0.0167, 1.6686, 0.0042], a=1.2, v=0.6)
  movej([0.1488, -1.5587, 1.6295, 0.0249, 1.6669, 0.0063], a=1.2, v=0.6)
  movej([0.1479, -1.555, 1.6292, 0.0329, 1.6644, 0.0084], a=1.2, v=0.6)
  movej([0.1467, -1.5513, 1.6287, 0.0407, 1.6614, 0.0105], a=1.2, v=0.6)
  movej([0.1453, -1.5476, 1.6281, 0.0482, 1.6576, 0.0126], a=1.2, v=0.6)
  movej([0.1436, -1.544, 1.6274, 0.0553, 1.6533, 0.0147], a=1.2, v=0.6)
  movej([0.1417, -1.5404, 1.6267, 0.0621, 1.6484, 0.0168], a=1.2, v=0.6)
  movej([0.1395, -1.5369, 1.6258, 0.0685, 1.6429, 0.0188], a=1.2, v=0.6)
  movej([0.137, -1.5334, 1.6248, 0.0743, 1.6369, 0.0209], a=1.2, v=0.6)
  movej([0.1344, -1.53, 1.6237, 0.0797, 1.6305, 0.023], a=1.2, v=0.6)
  movej([0.1314, -1.5266, 1.6226, 0.0844, 1.6236, 0.0251], a=1.2, v=0.6)
  movej([0.1283, -1.5234, 1.6213, 0.0886, 1.6163, 0.0272], a=1.2, v=0.6)
  movej([0.1249, -1.5202, 1.62, 0.0922, 1.6088, 0.0293], a=1.2, v=0.6)
  movej([0.1214, -1.5171, 1.6185, 0.0951, 1.6009, 0.0314], a=1.2, v=0.6)
  movej([0.1176, -1.5141, 1.617, 0.0974, 1.5928, 0.0335], a=1.2, v=0.6)
  movej([0.1135, -1.5112, 1.6154, 0.0989, 1.5846, 0.0356], a=1.2, v=0.6)
  movej([0.1093, -1.5084, 1.6137, 0.0998, 1.5763, 0.0377], a=1.2, v=0.6)
  movej([0.1049, -1.5057, 1.612, 0.1, 1.5679, 0.0398], a=1.2, v=0.6)
  movej([0.1004, -1.5031, 1.6101, 0.0995, 1.5595, 0.0419], a=1.2, v=0.6)
  movej([0.0956, -1.5007, 1.6082, 0.0982, 1.5513, 0.044], a=1.2, v=0.6)
  movej([0.0907, -1.4983, 1.6063, 0.0963, 1.5431, 0.0461], a=1.2, v=0.6)
  movej([0.0856, -1.4961, 1.6042, 0.0937, 1.5351, 0.0482], a=1.2, v=0.6)
  movej([0.0804, -1.494, 1.6021, 0.0905, 1.5274, 0.0503], a=1.2, v=0.6)
  movej([0.075, -1.4921, 1.6, 0.0866, 1.52, 0.0524], a=1.2, v=0.6)
  movej([0.0695, -1.4902, 1.5978, 0.0821, 1.5129, 0.0545], a=1.2, v=0.6)
  movej([0.0639, -1.4886, 1.5955, 0.0771, 1.5063, 0.0565], a=1.2, v=0.6)
  movej([0.0581, -1.487, 1.5933, 0.0714, 1.5, 0.0586], a=1.2, v=0.6)
  movej([0.0523, -1.4856, 1.5909, 0.0653, 1.4943, 0.0607], a=1.2, v=0.6)
  movej([0.0464, -1.4844, 1.5885, 0.0588, 1.4891, 0.0628], a=1.2, v=0.6)
  movej([0.0403, -1.4833, 1.5861, 0.0518, 1.4845, 0.0649], a=1.2, v=0.6)
  movej([0.0343, -1.4824, 1.5837, 0.0445, 1.4804, 0.067], a=1.2, v=0.6)
  movej([0.0281, -1.4816, 1.5812, 0.0368, 1.477, 0.0691], a=1.2, v=0.6)
  movej([0.0219, -1.481, 1.5788, 0.0289, 1.4743, 0.0712], a=1.2, v=0.6)
  movej([0.0157, -1.4805, 1.5763, 0.0208, 1.4722, 0.0733], a=1.2, v=0.6)
  movej([0.0094, -1.4802, 1.5738, 0.0125, 1.4708, 0.0754], a=1.2, v=0.6)
  movej([0.0031, -1.48, 1.5713, 0.0042, 1.4701, 0.0775], a=1.2, v=0.6)
  movej([-0.0031, -1.48, 1.5687, -0.0042, 1.4701, 0.0796], a=1.2, v=0.6)
  movej([-0.0094, -1.4802, 1.5662, -0.0125, 1.4708, 0.0817], a=1.2, v=0.6)
  movej([-0.0157, -1.4805, 1.5637, -0.0208, 1.4722, 0.0838], a=1.2, v=0.6)
  movej([-0.0219, -1.481, 1.5612, -0.0289, 1.4743, 0.0859], a=1.2, v=0.6)
  movej([-0.0281, -1.4816, 1.5588, -0.0368, 1.477, 0.088], a=1.2, v=0.6)
  movej([-0.0343, -1.4824, 1.5563, -0.0445, 1.4804, 0.0901], a=1.2, v=0.6)
  movej([-0.0403, -1.4833, 1.5539, -0.0518, 1.4845, 0.0922], a=1.2, v=0.6)
  movej([-0.0464, -1.4844, 1.5515, -0.0588, 1.4891, 0.0942], a=1.2, v=0.6)
  movej([-0.0523, -1.4856, 1.5491, -0.0653, 1.4943, 0.0963], a=1.2, v=0.6)
  movej([-0.0581, -1.487, 1.5467, -0.0714, 1.5, 0.0984], a=1.2, v=0.6)
  movej([-0.0639, -1.4886, 1.5445, -0.0771, 1.5063, 0.1005], a=1.2, v=0.6)
  movej([-0.0695, -1.4902, 1.5422, -0.0821, 1.5129, 0.1026], a=1.2, v=0.6)
  movej([-0.075, -1.4921, 1.54, -0.0866, 1.52, 0.1047], a=1.2, v=0.6)
  movej([-0.0804, -1.494, 1.5379, -0.0905, 1.5274, 0.1068], a=1.2, v=0.6)
  movej([-0.0856, -1.4961, 1.5358, -0.0937, 1.5351, 0.1089], a=1.2, v=0.6)
  movej([-0.0907, -1.4983, 1.5337, -0.0963, 1.5431, 0.111], a=1.2, v=0.6)
  movej([-0.0956, -1.5007, 1.5318, -0.0982, 1.5513, 0.1131], a=1.2, v=0.6)
  movej([-0.1004, -1.5031, 1.5299, -0.0995, 1.5595, 0.1152], a=1.2, v=0.6)
  movej([-0.1049, -1.5057, 1.528, -0.1, 1.5679, 0.1173], a=1.2, v=0.6)
  movej([-0.1093, -1.5084, 1.5263, -0.0998, 1.5763, 0.1194], a=1.2, v=0.6)
  movej([-0.1135, -1.5112, 1.5246, -0.0989, 1.5846, 0.1215], a=1.2, v=0.6)
  movej([-0.1176, -1.5141, 1.523, -0.0974, 1.5928, 0.1236], a=1.2, v=0.6)
  movej([-0.1214, -1.5171, 1.5215, -0.0951, 1.6009, 0.1257], a=1.2, v=0.6)
  movej([-0.1249, -1.5202, 1.52, -0.0922, 1.6088, 0.1278], a=1.2, v=0.6)
  movej([-0.1283, -1.5234, 1.5187, -0.0886, 1.6163, 0.1299], a=1.2, v=0.6)
  movej([-0.1314, -1.5266, 1.5174, -0.0844, 1.6236, 0.1319], a=1.2, v=0.6)
  movej([-0.1344, -1.53, 1.5163, -0.0797, 1.6305, 0.134], a=1.2, v=0.6)
  movej([-0.137, -1.5334, 1.5152, -0.0743, 1.6369, 0.1361], a=1.2, v=0.6)
  movej([-0.1395, -1.5369, 1.5142, -0.0685, 1.6429, 0.1382], a=1.2, v=0.6)
  movej([-0.1417, -1.5404, 1.5133, -0.0621, 1.6484, 0.1403], a=1.2, v=0.6)
  movej([-0.1436, -1.544, 1.5126, -0.0553, 1.6533, 0.1424], a=1.2, v=0.6)
  movej([-0.1453, -1.5476, 1.5119, -0.0482, 1.6576, 0.1445], a=1.2, v=0.6)
  movej([-0.1467, -1.5513, 1.5113, -0.0407, 1.6614, 0.1466], a=1.2, v=0.6)
  movej([-0.1479, -1.555, 1.5108, -0.0329, 1.6644, 0.1487], a=1.2, v=0.6)
  movej([-0.1488, -1.5587, 1.5105, -0.0249, 1.6669, 0.1508], a=1.2, v=0.6)
  movej([-0.1495, -1.5625, 1.5102, -0.0167, 1.6686, 0.1529], a=1.2, v=0.6)
  movej([-0.1499, -1.5662, 1.5101, -0.0084, 1.6696, 0.155], a=1.2, v=0.6)
  movej([-0.15, -1.57, 1.51, -0.0, 1.67, 0.1571], a=1.2, v=0.6)
  movej([-0.1499, -1.5738, 1.5101, 0.0084, 1.6696, 0.1592], a=1.2, v=0.6)
  movej([-0.1495, -1.5775, 1.5102, 0.0167, 1.6686, 0.1613], a=1.2, v=0.6)
  movej([-0.1488, -1.5813, 1.5105, 0.0249, 1.6669, 0.1634], a=1.2, v=0.6)
  movej([-0.1479, -1.585, 1.5108, 0.0329, 1.6644, 0.1655], a=1.2, v=0.6)
  movej([-0.1467, -1.5887, 1.5113, 0.0407, 1.6614, 0.1676], a=1.2, v=0.6)
  movej([-0.1453, -1.5924, 1.5119, 0.0482, 1.6576, 0.1696], a=1.2, v=0.6)
  movej([-0.1436, -1.596, 1.5126, 0.0553, 1.6533, 0.1717], a=1.2, v=0.6)
  movej([-0.1417, -1.5996, 1.5133, 0.0621, 1.6484, 0.1738], a=1.2, v=0.6)
  movej([-0.1395, -1.6031, 1.5142, 0.0685, 1.6429, 0.1759], a=1.2, v=0.6)
  movej([-0.137, -1.6066, 1.5152, 0.0743, 1.6369, 0.178], a=1.2, v=0.6)
  movej([-0.1344, -1.61, 1.5163, 0.0797, 1.6305, 0.1801], a=1.2, v=0.6)
  movej([-0.1314, -1.6134, 1.5174, 0.0844, 1.6236, 0.1822], a=1.2, v=0.6)
  movej([-0.1283, -1.6166, 1.5187, 0.0886, 1.6163, 0.1843], a=1.2, v=0.6)
  movej([-0.1249, -1.6198, 1.52, 0.0922, 1.6088, 0.1864], a=1.2, v=0.6)
  movej([-0.1214, -1.6229, 1.5215, 0.0951, 1.6009, 0.1885], a=1.2, v=0.6)
  movej([-0.1176, -1.6259, 1.523, 0.0974, 1.5928, 0.1906], a=1.2, v=0.6)
  movej([-0.1135, -1.6288, 1.5246, 0.0989, 1.5846, 0.1927], a=1.2, v=0.6)
  movej([-0.1093, -1.6316, 1.5263, 0.0998, 1.5763, 0.1948], a=1.2, v=0.6)
  movej([-0.1049, -1.6343, 1.528, 0.1, 1.5679, 0.1969], a=1.2, v=0.6)
  movej([-0.1004, -1.6369, 1.5299, 0.0995, 1.5595, 0.199], a=1.2, v=0.6)
  movej([-0.0956, -1.6393, 1.5318, 0.0982, 1.5513, 0.2011], a=1.2, v=0.6)
  movej([-0.0907, -1.6417, 1.5337, 0.0963, 1.5431, 0.2032], a=1.2, v=0.6)
  movej([-0.0856, -1.6439, 1.5358, 0.0937, 1.5351, 0.2053], a=1.2, v=0.6)
  movej([-0.0804, -1.646, 1.5379, 0.0905, 1.5274, 0.2073], a=1.2, v=0.6)
  movej([-0.075, -1.6479, 1.54, 0.0866, 1.52, 0.2094], a=1.2, v=0.6)
  movej([-0.0695, -1.6498, 1.5422, 0.0821, 1.5129, 0.2115], a=1.2, v=0.6)
  movej([-0.0639, -1.6514, 1.5445, 0.0771, 1.5063, 0.2136], a=1.2, v=0.6)
  movej([-0.0581, -1.653, 1.5467, 0.0714, 1.5, 0.2157], a=1.2, v=0.6)
  movej([-0.0523, -1.6544, 1.5491, 0.0653, 1.4943, 0.2178], a=1.2, v=0.6)
  movej([-0.0464, -1.6556, 1.5515, 0.0588, 1.4891, 0.2199], a=1.2, v=0.6)
  movej([-0.0403, -1.6567, 1.5539, 0.0518, 1.4845, 0.222], a=1.2, v=0.6)
  movej([-0.0343, -1.6576, 1.5563, 0.0445, 1.4804, 0.2241], a=1.2, v=0.6)
  movej([-0.0281, -1.6584, 1.5588, 0.0368, 1.477, 0.2262], a=1.2, v=0.6)
  movej([-0.0219, -1.659, 1.5612, 0.0289, 1.4743, 0.2283], a=1.2, v=0.6)
  movej([-0.0157, -1.6595, 1.5637, 0.0208, 1.4722, 0.2304], a=1.2, v=0.6)
  movej([-0.0094, -1.6598, 1.5662, 0.0125, 1.4708, 0.2325], a=1.2, v=0.6)
  movej([-0.0031, -1.66, 1.5687, 0.0042, 1.4701, 0.2346], a=1.2, v=0.6)
  movej([0.0031, -1.66, 1.5713, -0.0042, 1.4701, 0.2367], a=1.2, v=0.6)
  movej([0.0094, -1.6598, 1.5738, -0.0125, 1.4708, 0.2388], a=1.2, v=0.6)
  movej([0.0157, -1.6595, 1.5763, -0.0208, 1.4722, 0.2409], a=1.2, v=0.6)
  movej([0.0219, -1.659, 1.5788, -0.0289, 1.4743, 0.2429], a=1.2, v=0.6)
  movej([0.0281, -1.6584, 1.5812, -0.0368, 1.477, 0.245], a=1.2, v=0.6)
  movej([0.0343, -1.6576, 1.5837, -0.0445, 1.4804, 0.2471], a=1.2, v=0.6)
  movej([0.0403, -1.6567, 1.5861, -0.0518, 1.4845, 0.2492], a=1.2, v=0.6)
  movej([0.0464, -1.6556, 1.5885, -0.0588, 1.4891, 0.2513], a=1.2, v=0.6)
  movej([0.0523, -1.6544, 1.5909, -0.0653, 1.4943, 0.2534], a=1.2, v=0.6)
  movej([0.0581, -1.653, 1.5933, -0.0714, 1.5, 0.2555], a=1.2, v=0.6)
  movej([0.0639, -1.6514, 1.5955, -0.0771, 1.5063, 0.2576], a=1.2, v=0.6)
  movej([0.0695, -1.6498, 1.5978, -0.0821, 1.5129, 0.2597], a=1.2, v=0.6)
  movej([0.075, -1.6479, 1.6, -0.0866, 1.52, 0.2618], a=1.2, v=0.6)
  movej([0.0804, -1.646, 1.6021, -0.0905, 1.5274, 0.2639], a=1.2, v=0.6)
  movej([0.0856, -1.6439, 1.6042, -0.0937, 1.5351, 0.266], a=1.2, v=0.6)
  movej([0.0907, -1.6417, 1.6063, -0.0963, 1.5431, 0.2681], a=1.2, v=0.6)
  movej([0.0956, -1.6393, 1.6082, -0.0982, 1.5513, 0.2702], a=1.2, v=0.6)
  movej([0.1004, -1.6369, 1.6101, -0.0995, 1.5595, 0.2723], a=1.2, v=0.6)
  movej([0.1049, -1.6343, 1.612, -0.1, 1.5679, 0.2744], a=1.2, v=0.6)
  movej([0.1093, -1.6316, 1.6137, -0.0998, 1.5763, 0.2765], a=1.2, v=0.6)
  movej([0.1135, -1.6288, 1.6154, -0.0989, 1.5846, 0.2786], a=1.2, v=0.6)
  movej([0.1176, -1.6259, 1.617, -0.0974, 1.5928, 0.2806], a=1.2, v=0.6)
  movej([0.1214, -1.6229, 1.6185, -0.0951, 1.6009, 0.2827], a=1.2, v=0.6)
  movej([0.1249, -1.6198, 1.62, -0.0922, 1.6088, 0.2848], a=1.2, v=0.6)
  movej([0.1283, -1.6166, 1.6213, -0.0886, 1.6163, 0.2869], a=1.2, v=0.6)
  movej([0.1314, -1.6134, 1.6226, -0.0844, 1.6236, 0.289], a=1.2, v=0.6)
  movej([0.1344, -1.61, 1.6237, -0.0797, 1.6305, 0.2911], a=1.2, v=0.6)
  movej([0.137, -1.6066, 1.6248, -0.0743, 1.6369, 0.2932], a=1.2, v=0.6)
  movej([0.1395, -1.6031, 1.6258, -0.0685, 1.6429, 0.2953], a=1.2, v=0.6)
  movej([0.1417, -1.5996, 1.6267, -0.0621, 1.6484, 0.2974], a=1.2, v=0.6)
  movej([0.1436, -1.596, 1.6274, -0.0553, 1.6533, 0.2995], a=1.2, v=0.6)
  movej([0.1453, -1.5924, 1.6281, -0.0482, 1.6576, 0.3016], a=1.2, v=0.6)
  movej([0.1467, -1.5887, 1.6287, -0.0407, 1.6614, 0.3037], a=1.2, v=0.6)
  movej([0.1479, -1.585, 1.6292, -0.0329, 1.6644, 0.3058], a=1.2, v=0.6)
  movej([0.1488, -1.5813, 1.6295, -0.0249, 1.6669, 0.3079], a=1.2, v=0.6)
  movej([0.1495, -1.5775, 1.6298, -0.0167, 1.6686, 0.31], a=1.2, v=0.6)
  movej([0.1499, -1.5738, 1.6299, -0.0084, 1.6696, 0.3121], a=1.2, v=0.6)
end

execute_pattern()
