# Auto-generated UR Script from pattern generator

def execute_pattern():
  movej([0.15, -1.57, 1.63, 0.0, 1.67, 0.0], a=1.2, v=0.6)
  movej([0.1496, -1.5662, 1.6323, 0.0084, 1.6696, 0.0021], a=1.2, v=0.6)
  movej([0.1484, -1.5625, 1.6343, 0.0167, 1.6686, 0.0042], a=1.2, v=0.6)
  movej([0.1465, -1.559, 1.636, 0.0249, 1.6669, 0.0063], a=1.2, v=0.6)
  movej([0.1439, -1.5556, 1.6372, 0.0329, 1.6644, 0.0084], a=1.2, v=0.6)
  movej([0.1406, -1.5525, 1.638, 0.0407, 1.6614, 0.0105], a=1.2, v=0.6)
  movej([0.1368, -1.5496, 1.6383, 0.0482, 1.6576, 0.0126], a=1.2, v=0.6)
  movej([0.1325, -1.547, 1.6383, 0.0553, 1.6533, 0.0147], a=1.2, v=0.6)
  movej([0.1278, -1.5448, 1.6379, 0.0621, 1.6484, 0.0168], a=1.2, v=0.6)
  movej([0.1228, -1.5429, 1.6372, 0.0685, 1.6429, 0.0188], a=1.2, v=0.6)
  movej([0.1176, -1.5413, 1.6362, 0.0743, 1.6369, 0.0209], a=1.2, v=0.6)
  movej([0.1122, -1.5401, 1.6348, 0.0797, 1.6305, 0.023], a=1.2, v=0.6)
  movej([0.1067, -1.5392, 1.6332, 0.0844, 1.6236, 0.0251], a=1.2, v=0.6)
  movej([0.1012, -1.5386, 1.6314, 0.0886, 1.6163, 0.0272], a=1.2, v=0.6)
  movej([0.0956, -1.5382, 1.6294, 0.0922, 1.6088, 0.0293], a=1.2, v=0.6)
  movej([0.0902, -1.5382, 1.6273, 0.0951, 1.6009, 0.0314], a=1.2, v=0.6)
  movej([0.0848, -1.5384, 1.625, 0.0974, 1.5928, 0.0335], a=1.2, v=0.6)
  movej([0.0796, -1.5388, 1.6226, 0.0989, 1.5846, 0.0356], a=1.2, v=0.6)
  movej([0.0745, -1.5394, 1.6202, 0.0998, 1.5763, 0.0377], a=1.2, v=0.6)
  movej([0.0695, -1.5402, 1.6176, 0.1, 1.5679, 0.0398], a=1.2, v=0.6)
  movej([0.0647, -1.5412, 1.6151, 0.0995, 1.5595, 0.0419], a=1.2, v=0.6)
  movej([0.06, -1.5423, 1.6125, 0.0982, 1.5513, 0.044], a=1.2, v=0.6)
  movej([0.0555, -1.5435, 1.6099, 0.0963, 1.5431, 0.0461], a=1.2, v=0.6)
  movej([0.0511, -1.5448, 1.6072, 0.0937, 1.5351, 0.0482], a=1.2, v=0.6)
  movej([0.0469, -1.5462, 1.6046, 0.0905, 1.5274, 0.0503], a=1.2, v=0.6)
  movej([0.0429, -1.5477, 1.602, 0.0866, 1.52, 0.0524], a=1.2, v=0.6)
  movej([0.0389, -1.5493, 1.5994, 0.0821, 1.5129, 0.0545], a=1.2, v=0.6)
  movej([0.0351, -1.5509, 1.5968, 0.0771, 1.5063, 0.0565], a=1.2, v=0.6)
  movej([0.0314, -1.5526, 1.5942, 0.0714, 1.5, 0.0586], a=1.2, v=0.6)
  movej([0.0278, -1.5543, 1.5916, 0.0653, 1.4943, 0.0607], a=1.2, v=0.6)
  movej([0.0243, -1.5561, 1.589, 0.0588, 1.4891, 0.0628], a=1.2, v=0.6)
  movej([0.0209, -1.5579, 1.5864, 0.0518, 1.4845, 0.0649], a=1.2, v=0.6)
  movej([0.0176, -1.5597, 1.5839, 0.0445, 1.4804, 0.067], a=1.2, v=0.6)
  movej([0.0143, -1.5616, 1.5813, 0.0368, 1.477, 0.0691], a=1.2, v=0.6)
  movej([0.0111, -1.5634, 1.5788, 0.0289, 1.4743, 0.0712], a=1.2, v=0.6)
  movej([0.0079, -1.5653, 1.5763, 0.0208, 1.4722, 0.0733], a=1.2, v=0.6)
  movej([0.0047, -1.5672, 1.5738, 0.0125, 1.4708, 0.0754], a=1.2, v=0.6)
  movej([0.0016, -1.5691, 1.5713, 0.0042, 1.4701, 0.0775], a=1.2, v=0.6)
  movej([-0.0016, -1.5709, 1.5687, -0.0042, 1.4701, 0.0796], a=1.2, v=0.6)
  movej([-0.0047, -1.5728, 1.5662, -0.0125, 1.4708, 0.0817], a=1.2, v=0.6)
  movej([-0.0079, -1.5747, 1.5637, -0.0208, 1.4722, 0.0838], a=1.2, v=0.6)
  movej([-0.0111, -1.5766, 1.5612, -0.0289, 1.4743, 0.0859], a=1.2, v=0.6)
  movej([-0.0143, -1.5784, 1.5587, -0.0368, 1.477, 0.088], a=1.2, v=0.6)
  movej([-0.0176, -1.5803, 1.5561, -0.0445, 1.4804, 0.0901], a=1.2, v=0.6)
  movej([-0.0209, -1.5821, 1.5536, -0.0518, 1.4845, 0.0922], a=1.2, v=0.6)
  movej([-0.0243, -1.5839, 1.551, -0.0588, 1.4891, 0.0942], a=1.2, v=0.6)
  movej([-0.0278, -1.5857, 1.5484, -0.0653, 1.4943, 0.0963], a=1.2, v=0.6)
  movej([-0.0314, -1.5874, 1.5458, -0.0714, 1.5, 0.0984], a=1.2, v=0.6)
  movej([-0.0351, -1.5891, 1.5432, -0.0771, 1.5063, 0.1005], a=1.2, v=0.6)
  movej([-0.0389, -1.5907, 1.5406, -0.0821, 1.5129, 0.1026], a=1.2, v=0.6)
  movej([-0.0429, -1.5923, 1.538, -0.0866, 1.52, 0.1047], a=1.2, v=0.6)
  movej([-0.0469, -1.5938, 1.5354, -0.0905, 1.5274, 0.1068], a=1.2, v=0.6)
  movej([-0.0511, -1.5952, 1.5328, -0.0937, 1.5351, 0.1089], a=1.2, v=0.6)
  movej([-0.0555, -1.5965, 1.5301, -0.0963, 1.5431, 0.111], a=1.2, v=0.6)
  movej([-0.06, -1.5977, 1.5275, -0.0982, 1.5513, 0.1131], a=1.2, v=0.6)
  movej([-0.0647, -1.5988, 1.5249, -0.0995, 1.5595, 0.1152], a=1.2, v=0.6)
  movej([-0.0695, -1.5998, 1.5224, -0.1, 1.5679, 0.1173], a=1.2, v=0.6)
  movej([-0.0745, -1.6006, 1.5198, -0.0998, 1.5763, 0.1194], a=1.2, v=0.6)
  movej([-0.0796, -1.6012, 1.5174, -0.0989, 1.5846, 0.1215], a=1.2, v=0.6)
  movej([-0.0848, -1.6016, 1.515, -0.0974, 1.5928, 0.1236], a=1.2, v=0.6)
  movej([-0.0902, -1.6018, 1.5127, -0.0951, 1.6009, 0.1257], a=1.2, v=0.6)
  movej([-0.0956, -1.6018, 1.5106, -0.0922, 1.6088, 0.1278], a=1.2, v=0.6)
  movej([-0.1012, -1.6014, 1.5086, -0.0886, 1.6163, 0.1299], a=1.2, v=0.6)
  movej([-0.1067, -1.6008, 1.5068, -0.0844, 1.6236, 0.1319], a=1.2, v=0.6)
  movej([-0.1122, -1.5999, 1.5052, -0.0797, 1.6305, 0.134], a=1.2, v=0.6)
  movej([-0.1176, -1.5987, 1.5038, -0.0743, 1.6369, 0.1361], a=1.2, v=0.6)
  movej([-0.1228, -1.5971, 1.5028, -0.0685, 1.6429, 0.1382], a=1.2, v=0.6)
  movej([-0.1278, -1.5952, 1.5021, -0.0621, 1.6484, 0.1403], a=1.2, v=0.6)
  movej([-0.1325, -1.593, 1.5017, -0.0553, 1.6533, 0.1424], a=1.2, v=0.6)
  movej([-0.1368, -1.5904, 1.5017, -0.0482, 1.6576, 0.1445], a=1.2, v=0.6)
  movej([-0.1406, -1.5875, 1.502, -0.0407, 1.6614, 0.1466], a=1.2, v=0.6)
  movej([-0.1439, -1.5844, 1.5028, -0.0329, 1.6644, 0.1487], a=1.2, v=0.6)
  movej([-0.1465, -1.581, 1.504, -0.0249, 1.6669, 0.1508], a=1.2, v=0.6)
  movej([-0.1484, -1.5775, 1.5057, -0.0167, 1.6686, 0.1529], a=1.2, v=0.6)
  movej([-0.1496, -1.5738, 1.5077, -0.0084, 1.6696, 0.155], a=1.2, v=0.6)
  movej([-0.15, -1.57, 1.51, -0.0, 1.67, 0.1571], a=1.2, v=0.6)
  movej([-0.1496, -1.5662, 1.5127, 0.0084, 1.6696, 0.1592], a=1.2, v=0.6)
  movej([-0.1484, -1.5625, 1.5156, 0.0167, 1.6686, 0.1613], a=1.2, v=0.6)
  movej([-0.1465, -1.559, 1.5187, 0.0249, 1.6669, 0.1634], a=1.2, v=0.6)
  movej([-0.1439, -1.5556, 1.522, 0.0329, 1.6644, 0.1655], a=1.2, v=0.6)
  movej([-0.1406, -1.5525, 1.5254, 0.0407, 1.6614, 0.1676], a=1.2, v=0.6)
  movej([-0.1368, -1.5496, 1.5289, 0.0482, 1.6576, 0.1696], a=1.2, v=0.6)
  movej([-0.1325, -1.547, 1.5323, 0.0553, 1.6533, 0.1717], a=1.2, v=0.6)
  movej([-0.1278, -1.5448, 1.5357, 0.0621, 1.6484, 0.1738], a=1.2, v=0.6)
  movej([-0.1228, -1.5429, 1.539, 0.0685, 1.6429, 0.1759], a=1.2, v=0.6)
  movej([-0.1176, -1.5413, 1.5421, 0.0743, 1.6369, 0.178], a=1.2, v=0.6)
  movej([-0.1122, -1.5401, 1.5451, 0.0797, 1.6305, 0.1801], a=1.2, v=0.6)
  movej([-0.1067, -1.5392, 1.5479, 0.0844, 1.6236, 0.1822], a=1.2, v=0.6)
  movej([-0.1012, -1.5386, 1.5505, 0.0886, 1.6163, 0.1843], a=1.2, v=0.6)
  movej([-0.0956, -1.5382, 1.5529, 0.0922, 1.6088, 0.1864], a=1.2, v=0.6)
  movej([-0.0902, -1.5382, 1.5551, 0.0951, 1.6009, 0.1885], a=1.2, v=0.6)
  movej([-0.0848, -1.5384, 1.5571, 0.0974, 1.5928, 0.1906], a=1.2, v=0.6)
  movej([-0.0796, -1.5388, 1.559, 0.0989, 1.5846, 0.1927], a=1.2, v=0.6)
  movej([-0.0745, -1.5394, 1.5606, 0.0998, 1.5763, 0.1948], a=1.2, v=0.6)
  movej([-0.0695, -1.5402, 1.5621, 0.1, 1.5679, 0.1969], a=1.2, v=0.6)
  movej([-0.0647, -1.5412, 1.5634, 0.0995, 1.5595, 0.199], a=1.2, v=0.6)
  movej([-0.06, -1.5423, 1.5645, 0.0982, 1.5513, 0.2011], a=1.2, v=0.6)
  movej([-0.0555, -1.5435, 1.5655, 0.0963, 1.5431, 0.2032], a=1.2, v=0.6)
  movej([-0.0511, -1.5448, 1.5663, 0.0937, 1.5351, 0.2053], a=1.2, v=0.6)
  movej([-0.0469, -1.5462, 1.5671, 0.0905, 1.5274, 0.2073], a=1.2, v=0.6)
  movej([-0.0429, -1.5477, 1.5677, 0.0866, 1.52, 0.2094], a=1.2, v=0.6)
  movej([-0.0389, -1.5493, 1.5682, 0.0821, 1.5129, 0.2115], a=1.2, v=0.6)
  movej([-0.0351, -1.5509, 1.5687, 0.0771, 1.5063, 0.2136], a=1.2, v=0.6)
  movej([-0.0314, -1.5526, 1.569, 0.0714, 1.5, 0.2157], a=1.2, v=0.6)
  movej([-0.0278, -1.5543, 1.5693, 0.0653, 1.4943, 0.2178], a=1.2, v=0.6)
  movej([-0.0243, -1.5561, 1.5695, 0.0588, 1.4891, 0.2199], a=1.2, v=0.6)
  movej([-0.0209, -1.5579, 1.5697, 0.0518, 1.4845, 0.222], a=1.2, v=0.6)
  movej([-0.0176, -1.5597, 1.5698, 0.0445, 1.4804, 0.2241], a=1.2, v=0.6)
  movej([-0.0143, -1.5616, 1.5699, 0.0368, 1.477, 0.2262], a=1.2, v=0.6)
  movej([-0.0111, -1.5634, 1.57, 0.0289, 1.4743, 0.2283], a=1.2, v=0.6)
  movej([-0.0079, -1.5653, 1.57, 0.0208, 1.4722, 0.2304], a=1.2, v=0.6)
  movej([-0.0047, -1.5672, 1.57, 0.0125, 1.4708, 0.2325], a=1.2, v=0.6)
  movej([-0.0016, -1.5691, 1.57, 0.0042, 1.4701, 0.2346], a=1.2, v=0.6)
  movej([0.0016, -1.5709, 1.57, -0.0042, 1.4701, 0.2367], a=1.2, v=0.6)
  movej([0.0047, -1.5728, 1.57, -0.0125, 1.4708, 0.2388], a=1.2, v=0.6)
  movej([0.0079, -1.5747, 1.57, -0.0208, 1.4722, 0.2409], a=1.2, v=0.6)
  movej([0.0111, -1.5766, 1.57, -0.0289, 1.4743, 0.2429], a=1.2, v=0.6)
  movej([0.0143, -1.5784, 1.5701, -0.0368, 1.477, 0.245], a=1.2, v=0.6)
  movej([0.0176, -1.5803, 1.5702, -0.0445, 1.4804, 0.2471], a=1.2, v=0.6)
  movej([0.0209, -1.5821, 1.5703, -0.0518, 1.4845, 0.2492], a=1.2, v=0.6)
  movej([0.0243, -1.5839, 1.5705, -0.0588, 1.4891, 0.2513], a=1.2, v=0.6)
  movej([0.0278, -1.5857, 1.5707, -0.0653, 1.4943, 0.2534], a=1.2, v=0.6)
  movej([0.0314, -1.5874, 1.571, -0.0714, 1.5, 0.2555], a=1.2, v=0.6)
  movej([0.0351, -1.5891, 1.5713, -0.0771, 1.5063, 0.2576], a=1.2, v=0.6)
  movej([0.0389, -1.5907, 1.5718, -0.0821, 1.5129, 0.2597], a=1.2, v=0.6)
  movej([0.0429, -1.5923, 1.5723, -0.0866, 1.52, 0.2618], a=1.2, v=0.6)
  movej([0.0469, -1.5938, 1.5729, -0.0905, 1.5274, 0.2639], a=1.2, v=0.6)
  movej([0.0511, -1.5952, 1.5737, -0.0937, 1.5351, 0.266], a=1.2, v=0.6)
  movej([0.0555, -1.5965, 1.5745, -0.0963, 1.5431, 0.2681], a=1.2, v=0.6)
  movej([0.06, -1.5977, 1.5755, -0.0982, 1.5513, 0.2702], a=1.2, v=0.6)
  movej([0.0647, -1.5988, 1.5766, -0.0995, 1.5595, 0.2723], a=1.2, v=0.6)
  movej([0.0695, -1.5998, 1.5779, -0.1, 1.5679, 0.2744], a=1.2, v=0.6)
  movej([0.0745, -1.6006, 1.5794, -0.0998, 1.5763, 0.2765], a=1.2, v=0.6)
  movej([0.0796, -1.6012, 1.581, -0.0989, 1.5846, 0.2786], a=1.2, v=0.6)
  movej([0.0848, -1.6016, 1.5829, -0.0974, 1.5928, 0.2806], a=1.2, v=0.6)
  movej([0.0902, -1.6018, 1.5849, -0.0951, 1.6009, 0.2827], a=1.2, v=0.6)
  movej([0.0956, -1.6018, 1.5871, -0.0922, 1.6088, 0.2848], a=1.2, v=0.6)
  movej([0.1012, -1.6014, 1.5895, -0.0886, 1.6163, 0.2869], a=1.2, v=0.6)
  movej([0.1067, -1.6008, 1.5921, -0.0844, 1.6236, 0.289], a=1.2, v=0.6)
  movej([0.1122, -1.5999, 1.5949, -0.0797, 1.6305, 0.2911], a=1.2, v=0.6)
  movej([0.1176, -1.5987, 1.5979, -0.0743, 1.6369, 0.2932], a=1.2, v=0.6)
  movej([0.1228, -1.5971, 1.601, -0.0685, 1.6429, 0.2953], a=1.2, v=0.6)
  movej([0.1278, -1.5952, 1.6043, -0.0621, 1.6484, 0.2974], a=1.2, v=0.6)
  movej([0.1325, -1.593, 1.6077, -0.0553, 1.6533, 0.2995], a=1.2, v=0.6)
  movej([0.1368, -1.5904, 1.6111, -0.0482, 1.6576, 0.3016], a=1.2, v=0.6)
  movej([0.1406, -1.5875, 1.6146, -0.0407, 1.6614, 0.3037], a=1.2, v=0.6)
  movej([0.1439, -1.5844, 1.618, -0.0329, 1.6644, 0.3058], a=1.2, v=0.6)
  movej([0.1465, -1.581, 1.6213, -0.0249, 1.6669, 0.3079], a=1.2, v=0.6)
  movej([0.1484, -1.5775, 1.6244, -0.0167, 1.6686, 0.31], a=1.2, v=0.6)
  movej([0.1496, -1.5738, 1.6273, -0.0084, 1.6696, 0.3121], a=1.2, v=0.6)
end

execute_pattern()
