# Auto-generated UR Script from pattern generator

def execute_pattern():
  movej([0.15, -1.57, 1.57, 0.0, 1.67, 0.0], a=1.2, v=0.6)
  movej([0.1495, -1.5625, 1.5708, 0.0084, 1.6696, 0.0042], a=1.2, v=0.6)
  movej([0.1479, -1.555, 1.5716, 0.0167, 1.6686, 0.0084], a=1.2, v=0.6)
  movej([0.1453, -1.5476, 1.5724, 0.0249, 1.6669, 0.0126], a=1.2, v=0.6)
  movej([0.1417, -1.5404, 1.5732, 0.0329, 1.6644, 0.0168], a=1.2, v=0.6)
  movej([0.137, -1.5334, 1.574, 0.0407, 1.6614, 0.0209], a=1.2, v=0.6)
  movej([0.1314, -1.5266, 1.5748, 0.0482, 1.6576, 0.0251], a=1.2, v=0.6)
  movej([0.1249, -1.5202, 1.5756, 0.0553, 1.6533, 0.0293], a=1.2, v=0.6)
  movej([0.1176, -1.5141, 1.5764, 0.0621, 1.6484, 0.0335], a=1.2, v=0.6)
  movej([0.1093, -1.5084, 1.5772, 0.0685, 1.6429, 0.0377], a=1.2, v=0.6)
  movej([0.1004, -1.5031, 1.578, 0.0743, 1.6369, 0.0419], a=1.2, v=0.6)
  movej([0.0907, -1.4983, 1.5788, 0.0797, 1.6305, 0.0461], a=1.2, v=0.6)
  movej([0.0804, -1.494, 1.5796, 0.0844, 1.6236, 0.0503], a=1.2, v=0.6)
  movej([0.0695, -1.4902, 1.5804, 0.0886, 1.6163, 0.0545], a=1.2, v=0.6)
  movej([0.0581, -1.487, 1.5812, 0.0922, 1.6088, 0.0586], a=1.2, v=0.6)
  movej([0.0464, -1.4844, 1.582, 0.0951, 1.6009, 0.0628], a=1.2, v=0.6)
  movej([0.0343, -1.4824, 1.5828, 0.0974, 1.5928, 0.067], a=1.2, v=0.6)
  movej([0.0219, -1.481, 1.5836, 0.0989, 1.5846, 0.0712], a=1.2, v=0.6)
  movej([0.0094, -1.4802, 1.5844, 0.0998, 1.5763, 0.0754], a=1.2, v=0.6)
  movej([-0.0031, -1.48, 1.5852, 0.1, 1.5679, 0.0796], a=1.2, v=0.6)
  movej([-0.0157, -1.4805, 1.586, 0.0995, 1.5595, 0.0838], a=1.2, v=0.6)
  movej([-0.0281, -1.4816, 1.5868, 0.0982, 1.5513, 0.088], a=1.2, v=0.6)
  movej([-0.0403, -1.4833, 1.5876, 0.0963, 1.5431, 0.0922], a=1.2, v=0.6)
  movej([-0.0523, -1.4856, 1.5884, 0.0937, 1.5351, 0.0963], a=1.2, v=0.6)
  movej([-0.0639, -1.4886, 1.5892, 0.0905, 1.5274, 0.1005], a=1.2, v=0.6)
  movej([-0.075, -1.4921, 1.59, 0.0866, 1.52, 0.1047], a=1.2, v=0.6)
  movej([-0.0856, -1.4961, 1.5908, 0.0821, 1.5129, 0.1089], a=1.2, v=0.6)
  movej([-0.0956, -1.5007, 1.5916, 0.0771, 1.5063, 0.1131], a=1.2, v=0.6)
  movej([-0.1049, -1.5057, 1.5924, 0.0714, 1.5, 0.1173], a=1.2, v=0.6)
  movej([-0.1135, -1.5112, 1.5932, 0.0653, 1.4943, 0.1215], a=1.2, v=0.6)
  movej([-0.1214, -1.5171, 1.594, 0.0588, 1.4891, 0.1257], a=1.2, v=0.6)
  movej([-0.1283, -1.5234, 1.5948, 0.0518, 1.4845, 0.1299], a=1.2, v=0.6)
  movej([-0.1344, -1.53, 1.5956, 0.0445, 1.4804, 0.134], a=1.2, v=0.6)
  movej([-0.1395, -1.5369, 1.5964, 0.0368, 1.477, 0.1382], a=1.2, v=0.6)
  movej([-0.1436, -1.544, 1.5972, 0.0289, 1.4743, 0.1424], a=1.2, v=0.6)
  movej([-0.1467, -1.5513, 1.598, 0.0208, 1.4722, 0.1466], a=1.2, v=0.6)
  movej([-0.1488, -1.5587, 1.5988, 0.0125, 1.4708, 0.1508], a=1.2, v=0.6)
  movej([-0.1499, -1.5662, 1.5996, 0.0042, 1.4701, 0.155], a=1.2, v=0.6)
  movej([-0.1499, -1.5738, 1.6004, -0.0042, 1.4701, 0.1592], a=1.2, v=0.6)
  movej([-0.1488, -1.5813, 1.6012, -0.0125, 1.4708, 0.1634], a=1.2, v=0.6)
  movej([-0.1467, -1.5887, 1.602, -0.0208, 1.4722, 0.1676], a=1.2, v=0.6)
  movej([-0.1436, -1.596, 1.6028, -0.0289, 1.4743, 0.1717], a=1.2, v=0.6)
  movej([-0.1395, -1.6031, 1.6036, -0.0368, 1.477, 0.1759], a=1.2, v=0.6)
  movej([-0.1344, -1.61, 1.6044, -0.0445, 1.4804, 0.1801], a=1.2, v=0.6)
  movej([-0.1283, -1.6166, 1.6052, -0.0518, 1.4845, 0.1843], a=1.2, v=0.6)
  movej([-0.1214, -1.6229, 1.606, -0.0588, 1.4891, 0.1885], a=1.2, v=0.6)
  movej([-0.1135, -1.6288, 1.6068, -0.0653, 1.4943, 0.1927], a=1.2, v=0.6)
  movej([-0.1049, -1.6343, 1.6076, -0.0714, 1.5, 0.1969], a=1.2, v=0.6)
  movej([-0.0956, -1.6393, 1.6084, -0.0771, 1.5063, 0.2011], a=1.2, v=0.6)
  movej([-0.0856, -1.6439, 1.6092, -0.0821, 1.5129, 0.2053], a=1.2, v=0.6)
  movej([-0.075, -1.6479, 1.61, -0.0866, 1.52, 0.2094], a=1.2, v=0.6)
  movej([-0.0639, -1.6514, 1.6108, -0.0905, 1.5274, 0.2136], a=1.2, v=0.6)
  movej([-0.0523, -1.6544, 1.6116, -0.0937, 1.5351, 0.2178], a=1.2, v=0.6)
  movej([-0.0403, -1.6567, 1.6124, -0.0963, 1.5431, 0.222], a=1.2, v=0.6)
  movej([-0.0281, -1.6584, 1.6132, -0.0982, 1.5513, 0.2262], a=1.2, v=0.6)
  movej([-0.0157, -1.6595, 1.614, -0.0995, 1.5595, 0.2304], a=1.2, v=0.6)
  movej([-0.0031, -1.66, 1.6148, -0.1, 1.5679, 0.2346], a=1.2, v=0.6)
  movej([0.0094, -1.6598, 1.6156, -0.0998, 1.5763, 0.2388], a=1.2, v=0.6)
  movej([0.0219, -1.659, 1.6164, -0.0989, 1.5846, 0.2429], a=1.2, v=0.6)
  movej([0.0343, -1.6576, 1.6172, -0.0974, 1.5928, 0.2471], a=1.2, v=0.6)
  movej([0.0464, -1.6556, 1.618, -0.0951, 1.6009, 0.2513], a=1.2, v=0.6)
  movej([0.0581, -1.653, 1.6188, -0.0922, 1.6088, 0.2555], a=1.2, v=0.6)
  movej([0.0695, -1.6498, 1.6196, -0.0886, 1.6163, 0.2597], a=1.2, v=0.6)
  movej([0.0804, -1.646, 1.6204, -0.0844, 1.6236, 0.2639], a=1.2, v=0.6)
  movej([0.0907, -1.6417, 1.6212, -0.0797, 1.6305, 0.2681], a=1.2, v=0.6)
  movej([0.1004, -1.6369, 1.622, -0.0743, 1.6369, 0.2723], a=1.2, v=0.6)
  movej([0.1093, -1.6316, 1.6228, -0.0685, 1.6429, 0.2765], a=1.2, v=0.6)
  movej([0.1176, -1.6259, 1.6236, -0.0621, 1.6484, 0.2806], a=1.2, v=0.6)
  movej([0.1249, -1.6198, 1.6244, -0.0553, 1.6533, 0.2848], a=1.2, v=0.6)
  movej([0.1314, -1.6134, 1.6252, -0.0482, 1.6576, 0.289], a=1.2, v=0.6)
  movej([0.137, -1.6066, 1.626, -0.0407, 1.6614, 0.2932], a=1.2, v=0.6)
  movej([0.1417, -1.5996, 1.6268, -0.0329, 1.6644, 0.2974], a=1.2, v=0.6)
  movej([0.1453, -1.5924, 1.6276, -0.0249, 1.6669, 0.3016], a=1.2, v=0.6)
  movej([0.1479, -1.585, 1.6284, -0.0167, 1.6686, 0.3058], a=1.2, v=0.6)
  movej([0.1495, -1.5775, 1.6292, -0.0084, 1.6696, 0.31], a=1.2, v=0.6)
  movej([0.15, -1.57, 1.63, -0.0, 1.67, 0.3142], a=1.2, v=0.6)
  movej([0.1495, -1.5625, 1.6308, 0.0084, 1.6696, 0.3183], a=1.2, v=0.6)
  movej([0.1479, -1.555, 1.6316, 0.0167, 1.6686, 0.3225], a=1.2, v=0.6)
  movej([0.1453, -1.5476, 1.6324, 0.0249, 1.6669, 0.3267], a=1.2, v=0.6)
  movej([0.1417, -1.5404, 1.6332, 0.0329, 1.6644, 0.3309], a=1.2, v=0.6)
  movej([0.137, -1.5334, 1.634, 0.0407, 1.6614, 0.3351], a=1.2, v=0.6)
  movej([0.1314, -1.5266, 1.6348, 0.0482, 1.6576, 0.3393], a=1.2, v=0.6)
  movej([0.1249, -1.5202, 1.6356, 0.0553, 1.6533, 0.3435], a=1.2, v=0.6)
  movej([0.1176, -1.5141, 1.6364, 0.0621, 1.6484, 0.3477], a=1.2, v=0.6)
  movej([0.1093, -1.5084, 1.6372, 0.0685, 1.6429, 0.3519], a=1.2, v=0.6)
  movej([0.1004, -1.5031, 1.638, 0.0743, 1.6369, 0.356], a=1.2, v=0.6)
  movej([0.0907, -1.4983, 1.6388, 0.0797, 1.6305, 0.3602], a=1.2, v=0.6)
  movej([0.0804, -1.494, 1.6396, 0.0844, 1.6236, 0.3644], a=1.2, v=0.6)
  movej([0.0695, -1.4902, 1.6404, 0.0886, 1.6163, 0.3686], a=1.2, v=0.6)
  movej([0.0581, -1.487, 1.6412, 0.0922, 1.6088, 0.3728], a=1.2, v=0.6)
  movej([0.0464, -1.4844, 1.642, 0.0951, 1.6009, 0.377], a=1.2, v=0.6)
  movej([0.0343, -1.4824, 1.6428, 0.0974, 1.5928, 0.3812], a=1.2, v=0.6)
  movej([0.0219, -1.481, 1.6436, 0.0989, 1.5846, 0.3854], a=1.2, v=0.6)
  movej([0.0094, -1.4802, 1.6444, 0.0998, 1.5763, 0.3896], a=1.2, v=0.6)
  movej([-0.0031, -1.48, 1.6452, 0.1, 1.5679, 0.3937], a=1.2, v=0.6)
  movej([-0.0157, -1.4805, 1.646, 0.0995, 1.5595, 0.3979], a=1.2, v=0.6)
  movej([-0.0281, -1.4816, 1.6468, 0.0982, 1.5513, 0.4021], a=1.2, v=0.6)
  movej([-0.0403, -1.4833, 1.6476, 0.0963, 1.5431, 0.4063], a=1.2, v=0.6)
  movej([-0.0523, -1.4856, 1.6484, 0.0937, 1.5351, 0.4105], a=1.2, v=0.6)
  movej([-0.0639, -1.4886, 1.6492, 0.0905, 1.5274, 0.4147], a=1.2, v=0.6)
  movej([-0.075, -1.4921, 1.65, 0.0866, 1.52, 0.4189], a=1.2, v=0.6)
  movej([-0.0856, -1.4961, 1.6508, 0.0821, 1.5129, 0.4231], a=1.2, v=0.6)
  movej([-0.0956, -1.5007, 1.6516, 0.0771, 1.5063, 0.4273], a=1.2, v=0.6)
  movej([-0.1049, -1.5057, 1.6524, 0.0714, 1.5, 0.4314], a=1.2, v=0.6)
  movej([-0.1135, -1.5112, 1.6532, 0.0653, 1.4943, 0.4356], a=1.2, v=0.6)
  movej([-0.1214, -1.5171, 1.654, 0.0588, 1.4891, 0.4398], a=1.2, v=0.6)
  movej([-0.1283, -1.5234, 1.6548, 0.0518, 1.4845, 0.444], a=1.2, v=0.6)
  movej([-0.1344, -1.53, 1.6556, 0.0445, 1.4804, 0.4482], a=1.2, v=0.6)
  movej([-0.1395, -1.5369, 1.6564, 0.0368, 1.477, 0.4524], a=1.2, v=0.6)
  movej([-0.1436, -1.544, 1.6572, 0.0289, 1.4743, 0.4566], a=1.2, v=0.6)
  movej([-0.1467, -1.5513, 1.658, 0.0208, 1.4722, 0.4608], a=1.2, v=0.6)
  movej([-0.1488, -1.5587, 1.6588, 0.0125, 1.4708, 0.465], a=1.2, v=0.6)
  movej([-0.1499, -1.5662, 1.6596, 0.0042, 1.4701, 0.4691], a=1.2, v=0.6)
  movej([-0.1499, -1.5738, 1.6604, -0.0042, 1.4701, 0.4733], a=1.2, v=0.6)
  movej([-0.1488, -1.5813, 1.6612, -0.0125, 1.4708, 0.4775], a=1.2, v=0.6)
  movej([-0.1467, -1.5887, 1.662, -0.0208, 1.4722, 0.4817], a=1.2, v=0.6)
  movej([-0.1436, -1.596, 1.6628, -0.0289, 1.4743, 0.4859], a=1.2, v=0.6)
  movej([-0.1395, -1.6031, 1.6636, -0.0368, 1.477, 0.4901], a=1.2, v=0.6)
  movej([-0.1344, -1.61, 1.6644, -0.0445, 1.4804, 0.4943], a=1.2, v=0.6)
  movej([-0.1283, -1.6166, 1.6652, -0.0518, 1.4845, 0.4985], a=1.2, v=0.6)
  movej([-0.1214, -1.6229, 1.666, -0.0588, 1.4891, 0.5027], a=1.2, v=0.6)
  movej([-0.1135, -1.6288, 1.6668, -0.0653, 1.4943, 0.5068], a=1.2, v=0.6)
  movej([-0.1049, -1.6343, 1.6676, -0.0714, 1.5, 0.511], a=1.2, v=0.6)
  movej([-0.0956, -1.6393, 1.6684, -0.0771, 1.5063, 0.5152], a=1.2, v=0.6)
  movej([-0.0856, -1.6439, 1.6692, -0.0821, 1.5129, 0.5194], a=1.2, v=0.6)
  movej([-0.075, -1.6479, 1.67, -0.0866, 1.52, 0.5236], a=1.2, v=0.6)
  movej([-0.0639, -1.6514, 1.6708, -0.0905, 1.5274, 0.5278], a=1.2, v=0.6)
  movej([-0.0523, -1.6544, 1.6716, -0.0937, 1.5351, 0.532], a=1.2, v=0.6)
  movej([-0.0403, -1.6567, 1.6724, -0.0963, 1.5431, 0.5362], a=1.2, v=0.6)
  movej([-0.0281, -1.6584, 1.6732, -0.0982, 1.5513, 0.5404], a=1.2, v=0.6)
  movej([-0.0157, -1.6595, 1.674, -0.0995, 1.5595, 0.5445], a=1.2, v=0.6)
  movej([-0.0031, -1.66, 1.6748, -0.1, 1.5679, 0.5487], a=1.2, v=0.6)
  movej([0.0094, -1.6598, 1.6756, -0.0998, 1.5763, 0.5529], a=1.2, v=0.6)
  movej([0.0219, -1.659, 1.6764, -0.0989, 1.5846, 0.5571], a=1.2, v=0.6)
  movej([0.0343, -1.6576, 1.6772, -0.0974, 1.5928, 0.5613], a=1.2, v=0.6)
  movej([0.0464, -1.6556, 1.678, -0.0951, 1.6009, 0.5655], a=1.2, v=0.6)
  movej([0.0581, -1.653, 1.6788, -0.0922, 1.6088, 0.5697], a=1.2, v=0.6)
  movej([0.0695, -1.6498, 1.6796, -0.0886, 1.6163, 0.5739], a=1.2, v=0.6)
  movej([0.0804, -1.646, 1.6804, -0.0844, 1.6236, 0.5781], a=1.2, v=0.6)
  movej([0.0907, -1.6417, 1.6812, -0.0797, 1.6305, 0.5822], a=1.2, v=0.6)
  movej([0.1004, -1.6369, 1.682, -0.0743, 1.6369, 0.5864], a=1.2, v=0.6)
  movej([0.1093, -1.6316, 1.6828, -0.0685, 1.6429, 0.5906], a=1.2, v=0.6)
  movej([0.1176, -1.6259, 1.6836, -0.0621, 1.6484, 0.5948], a=1.2, v=0.6)
  movej([0.1249, -1.6198, 1.6844, -0.0553, 1.6533, 0.599], a=1.2, v=0.6)
  movej([0.1314, -1.6134, 1.6852, -0.0482, 1.6576, 0.6032], a=1.2, v=0.6)
  movej([0.137, -1.6066, 1.686, -0.0407, 1.6614, 0.6074], a=1.2, v=0.6)
  movej([0.1417, -1.5996, 1.6868, -0.0329, 1.6644, 0.6116], a=1.2, v=0.6)
  movej([0.1453, -1.5924, 1.6876, -0.0249, 1.6669, 0.6158], a=1.2, v=0.6)
  movej([0.1479, -1.585, 1.6884, -0.0167, 1.6686, 0.6199], a=1.2, v=0.6)
  movej([0.1495, -1.5775, 1.6892, -0.0084, 1.6696, 0.6241], a=1.2, v=0.6)
end

execute_pattern()
