# Auto-generated UR Script from pattern generator

def execute_pattern():
  movej([-0.09, -1.57, 1.6, 0.0, 1.67, 0.0], a=1.2, v=0.6)
  movej([-0.0888, -1.5587, 1.6075, 0.0125, 1.6692, 0.0025], a=1.2, v=0.6)
  movej([-0.0876, -1.5476, 1.6147, 0.0249, 1.6669, 0.005], a=1.2, v=0.6)
  movej([-0.0864, -1.5369, 1.6216, 0.0368, 1.663, 0.0075], a=1.2, v=0.6)
  movej([-0.0852, -1.5266, 1.628, 0.0482, 1.6576, 0.0101], a=1.2, v=0.6)
  movej([-0.084, -1.5171, 1.6338, 0.0588, 1.6509, 0.0126], a=1.2, v=0.6)
  movej([-0.0828, -1.5084, 1.639, 0.0685, 1.6429, 0.0151], a=1.2, v=0.6)
  movej([-0.0816, -1.5007, 1.6434, 0.0771, 1.6337, 0.0176], a=1.2, v=0.6)
  movej([-0.0804, -1.494, 1.6469, 0.0844, 1.6236, 0.0201], a=1.2, v=0.6)
  movej([-0.0792, -1.4886, 1.6496, 0.0905, 1.6126, 0.0226], a=1.2, v=0.6)
  movej([-0.078, -1.4844, 1.6513, 0.0951, 1.6009, 0.0251], a=1.2, v=0.6)
  movej([-0.0768, -1.4816, 1.6521, 0.0982, 1.5887, 0.0276], a=1.2, v=0.6)
  movej([-0.0756, -1.4802, 1.6518, 0.0998, 1.5763, 0.0302], a=1.2, v=0.6)
  movej([-0.0744, -1.4802, 1.6504, 0.0998, 1.5637, 0.0327], a=1.2, v=0.6)
  movej([-0.0732, -1.4816, 1.6481, 0.0982, 1.5513, 0.0352], a=1.2, v=0.6)
  movej([-0.072, -1.4844, 1.6447, 0.0951, 1.5391, 0.0377], a=1.2, v=0.6)
  movej([-0.0708, -1.4886, 1.6404, 0.0905, 1.5274, 0.0402], a=1.2, v=0.6)
  movej([-0.0696, -1.494, 1.6351, 0.0844, 1.5164, 0.0427], a=1.2, v=0.6)
  movej([-0.0684, -1.5007, 1.629, 0.0771, 1.5063, 0.0452], a=1.2, v=0.6)
  movej([-0.0672, -1.5084, 1.6221, 0.0685, 1.4971, 0.0478], a=1.2, v=0.6)
  movej([-0.066, -1.5171, 1.6145, 0.0588, 1.4891, 0.0503], a=1.2, v=0.6)
  movej([-0.0648, -1.5266, 1.6064, 0.0482, 1.4824, 0.0528], a=1.2, v=0.6)
  movej([-0.0636, -1.5369, 1.5977, 0.0368, 1.477, 0.0553], a=1.2, v=0.6)
  movej([-0.0624, -1.5476, 1.5887, 0.0249, 1.4731, 0.0578], a=1.2, v=0.6)
  movej([-0.0612, -1.5587, 1.5794, 0.0125, 1.4708, 0.0603], a=1.2, v=0.6)
  movej([-0.06, -1.57, 1.57, 0.0, 1.47, 0.0628], a=1.2, v=0.6)
  movej([-0.0588, -1.5813, 1.5606, -0.0125, 1.4708, 0.0653], a=1.2, v=0.6)
  movej([-0.0576, -1.5924, 1.5513, -0.0249, 1.4731, 0.0679], a=1.2, v=0.6)
  movej([-0.0564, -1.6031, 1.5423, -0.0368, 1.477, 0.0704], a=1.2, v=0.6)
  movej([-0.0552, -1.6134, 1.5336, -0.0482, 1.4824, 0.0729], a=1.2, v=0.6)
  movej([-0.054, -1.6229, 1.5255, -0.0588, 1.4891, 0.0754], a=1.2, v=0.6)
  movej([-0.0528, -1.6316, 1.5179, -0.0685, 1.4971, 0.0779], a=1.2, v=0.6)
  movej([-0.0516, -1.6393, 1.511, -0.0771, 1.5063, 0.0804], a=1.2, v=0.6)
  movej([-0.0504, -1.646, 1.5049, -0.0844, 1.5164, 0.0829], a=1.2, v=0.6)
  movej([-0.0492, -1.6514, 1.4996, -0.0905, 1.5274, 0.0855], a=1.2, v=0.6)
  movej([-0.048, -1.6556, 1.4953, -0.0951, 1.5391, 0.088], a=1.2, v=0.6)
  movej([-0.0468, -1.6584, 1.4919, -0.0982, 1.5513, 0.0905], a=1.2, v=0.6)
  movej([-0.0456, -1.6598, 1.4896, -0.0998, 1.5637, 0.093], a=1.2, v=0.6)
  movej([-0.0444, -1.6598, 1.4882, -0.0998, 1.5763, 0.0955], a=1.2, v=0.6)
  movej([-0.0432, -1.6584, 1.4879, -0.0982, 1.5887, 0.098], a=1.2, v=0.6)
  movej([-0.042, -1.6556, 1.4887, -0.0951, 1.6009, 0.1005], a=1.2, v=0.6)
  movej([-0.0408, -1.6514, 1.4904, -0.0905, 1.6126, 0.103], a=1.2, v=0.6)
  movej([-0.0396, -1.646, 1.4931, -0.0844, 1.6236, 0.1056], a=1.2, v=0.6)
  movej([-0.0384, -1.6393, 1.4966, -0.0771, 1.6337, 0.1081], a=1.2, v=0.6)
  movej([-0.0372, -1.6316, 1.501, -0.0685, 1.6429, 0.1106], a=1.2, v=0.6)
  movej([-0.036, -1.6229, 1.5062, -0.0588, 1.6509, 0.1131], a=1.2, v=0.6)
  movej([-0.0348, -1.6134, 1.512, -0.0482, 1.6576, 0.1156], a=1.2, v=0.6)
  movej([-0.0336, -1.6031, 1.5184, -0.0368, 1.663, 0.1181], a=1.2, v=0.6)
  movej([-0.0324, -1.5924, 1.5253, -0.0249, 1.6669, 0.1206], a=1.2, v=0.6)
  movej([-0.0312, -1.5813, 1.5325, -0.0125, 1.6692, 0.1232], a=1.2, v=0.6)
  movej([-0.03, -1.57, 1.54, -0.0, 1.67, 0.1257], a=1.2, v=0.6)
  movej([-0.0288, -1.5587, 1.5476, 0.0125, 1.6692, 0.1282], a=1.2, v=0.6)
  movej([-0.0276, -1.5476, 1.5552, 0.0249, 1.6669, 0.1307], a=1.2, v=0.6)
  movej([-0.0264, -1.5369, 1.5626, 0.0368, 1.663, 0.1332], a=1.2, v=0.6)
  movej([-0.0252, -1.5266, 1.5698, 0.0482, 1.6576, 0.1357], a=1.2, v=0.6)
  movej([-0.024, -1.5171, 1.5767, 0.0588, 1.6509, 0.1382], a=1.2, v=0.6)
  movej([-0.0228, -1.5084, 1.5832, 0.0685, 1.6429, 0.1407], a=1.2, v=0.6)
  movej([-0.0216, -1.5007, 1.5891, 0.0771, 1.6337, 0.1433], a=1.2, v=0.6)
  movej([-0.0204, -1.494, 1.5944, 0.0844, 1.6236, 0.1458], a=1.2, v=0.6)
  movej([-0.0192, -1.4886, 1.599, 0.0905, 1.6126, 0.1483], a=1.2, v=0.6)
  movej([-0.018, -1.4844, 1.6028, 0.0951, 1.6009, 0.1508], a=1.2, v=0.6)
  movej([-0.0168, -1.4816, 1.6058, 0.0982, 1.5887, 0.1533], a=1.2, v=0.6)
  movej([-0.0156, -1.4802, 1.608, 0.0998, 1.5763, 0.1558], a=1.2, v=0.6)
  movej([-0.0144, -1.4802, 1.6093, 0.0998, 1.5637, 0.1583], a=1.2, v=0.6)
  movej([-0.0132, -1.4816, 1.6098, 0.0982, 1.5513, 0.1608], a=1.2, v=0.6)
  movej([-0.012, -1.4844, 1.6094, 0.0951, 1.5391, 0.1634], a=1.2, v=0.6)
  movej([-0.0108, -1.4886, 1.6082, 0.0905, 1.5274, 0.1659], a=1.2, v=0.6)
  movej([-0.0096, -1.494, 1.6062, 0.0844, 1.5164, 0.1684], a=1.2, v=0.6)
  movej([-0.0084, -1.5007, 1.6035, 0.0771, 1.5063, 0.1709], a=1.2, v=0.6)
  movej([-0.0072, -1.5084, 1.6, 0.0685, 1.4971, 0.1734], a=1.2, v=0.6)
  movej([-0.006, -1.5171, 1.596, 0.0588, 1.4891, 0.1759], a=1.2, v=0.6)
  movej([-0.0048, -1.5266, 1.5914, 0.0482, 1.4824, 0.1784], a=1.2, v=0.6)
  movej([-0.0036, -1.5369, 1.5865, 0.0368, 1.477, 0.181], a=1.2, v=0.6)
  movej([-0.0024, -1.5476, 1.5812, 0.0249, 1.4731, 0.1835], a=1.2, v=0.6)
  movej([-0.0012, -1.5587, 1.5756, 0.0125, 1.4708, 0.186], a=1.2, v=0.6)
  movej([0.0, -1.57, 1.57, 0.0, 1.47, 0.1885], a=1.2, v=0.6)
  movej([0.0012, -1.5813, 1.5644, -0.0125, 1.4708, 0.191], a=1.2, v=0.6)
  movej([0.0024, -1.5924, 1.5588, -0.0249, 1.4731, 0.1935], a=1.2, v=0.6)
  movej([0.0036, -1.6031, 1.5535, -0.0368, 1.477, 0.196], a=1.2, v=0.6)
  movej([0.0048, -1.6134, 1.5486, -0.0482, 1.4824, 0.1985], a=1.2, v=0.6)
  movej([0.006, -1.6229, 1.544, -0.0588, 1.4891, 0.2011], a=1.2, v=0.6)
  movej([0.0072, -1.6316, 1.54, -0.0685, 1.4971, 0.2036], a=1.2, v=0.6)
  movej([0.0084, -1.6393, 1.5365, -0.0771, 1.5063, 0.2061], a=1.2, v=0.6)
  movej([0.0096, -1.646, 1.5338, -0.0844, 1.5164, 0.2086], a=1.2, v=0.6)
  movej([0.0108, -1.6514, 1.5318, -0.0905, 1.5274, 0.2111], a=1.2, v=0.6)
  movej([0.012, -1.6556, 1.5306, -0.0951, 1.5391, 0.2136], a=1.2, v=0.6)
  movej([0.0132, -1.6584, 1.5302, -0.0982, 1.5513, 0.2161], a=1.2, v=0.6)
  movej([0.0144, -1.6598, 1.5307, -0.0998, 1.5637, 0.2187], a=1.2, v=0.6)
  movej([0.0156, -1.6598, 1.532, -0.0998, 1.5763, 0.2212], a=1.2, v=0.6)
  movej([0.0168, -1.6584, 1.5342, -0.0982, 1.5887, 0.2237], a=1.2, v=0.6)
  movej([0.018, -1.6556, 1.5372, -0.0951, 1.6009, 0.2262], a=1.2, v=0.6)
  movej([0.0192, -1.6514, 1.541, -0.0905, 1.6126, 0.2287], a=1.2, v=0.6)
  movej([0.0204, -1.646, 1.5456, -0.0844, 1.6236, 0.2312], a=1.2, v=0.6)
  movej([0.0216, -1.6393, 1.5509, -0.0771, 1.6337, 0.2337], a=1.2, v=0.6)
  movej([0.0228, -1.6316, 1.5568, -0.0685, 1.6429, 0.2362], a=1.2, v=0.6)
  movej([0.024, -1.6229, 1.5633, -0.0588, 1.6509, 0.2388], a=1.2, v=0.6)
  movej([0.0252, -1.6134, 1.5702, -0.0482, 1.6576, 0.2413], a=1.2, v=0.6)
  movej([0.0264, -1.6031, 1.5774, -0.0368, 1.663, 0.2438], a=1.2, v=0.6)
  movej([0.0276, -1.5924, 1.5848, -0.0249, 1.6669, 0.2463], a=1.2, v=0.6)
  movej([0.0288, -1.5813, 1.5924, -0.0125, 1.6692, 0.2488], a=1.2, v=0.6)
  movej([0.03, -1.57, 1.6, -0.0, 1.67, 0.2513], a=1.2, v=0.6)
  movej([0.0312, -1.5587, 1.6075, 0.0125, 1.6692, 0.2538], a=1.2, v=0.6)
  movej([0.0324, -1.5476, 1.6147, 0.0249, 1.6669, 0.2564], a=1.2, v=0.6)
  movej([0.0336, -1.5369, 1.6216, 0.0368, 1.663, 0.2589], a=1.2, v=0.6)
  movej([0.0348, -1.5266, 1.628, 0.0482, 1.6576, 0.2614], a=1.2, v=0.6)
  movej([0.036, -1.5171, 1.6338, 0.0588, 1.6509, 0.2639], a=1.2, v=0.6)
  movej([0.0372, -1.5084, 1.639, 0.0685, 1.6429, 0.2664], a=1.2, v=0.6)
  movej([0.0384, -1.5007, 1.6434, 0.0771, 1.6337, 0.2689], a=1.2, v=0.6)
  movej([0.0396, -1.494, 1.6469, 0.0844, 1.6236, 0.2714], a=1.2, v=0.6)
  movej([0.0408, -1.4886, 1.6496, 0.0905, 1.6126, 0.2739], a=1.2, v=0.6)
  movej([0.042, -1.4844, 1.6513, 0.0951, 1.6009, 0.2765], a=1.2, v=0.6)
  movej([0.0432, -1.4816, 1.6521, 0.0982, 1.5887, 0.279], a=1.2, v=0.6)
  movej([0.0444, -1.4802, 1.6518, 0.0998, 1.5763, 0.2815], a=1.2, v=0.6)
  movej([0.0456, -1.4802, 1.6504, 0.0998, 1.5637, 0.284], a=1.2, v=0.6)
  movej([0.0468, -1.4816, 1.6481, 0.0982, 1.5513, 0.2865], a=1.2, v=0.6)
  movej([0.048, -1.4844, 1.6447, 0.0951, 1.5391, 0.289], a=1.2, v=0.6)
  movej([0.0492, -1.4886, 1.6404, 0.0905, 1.5274, 0.2915], a=1.2, v=0.6)
  movej([0.0504, -1.494, 1.6351, 0.0844, 1.5164, 0.2941], a=1.2, v=0.6)
  movej([0.0516, -1.5007, 1.629, 0.0771, 1.5063, 0.2966], a=1.2, v=0.6)
  movej([0.0528, -1.5084, 1.6221, 0.0685, 1.4971, 0.2991], a=1.2, v=0.6)
  movej([0.054, -1.5171, 1.6145, 0.0588, 1.4891, 0.3016], a=1.2, v=0.6)
  movej([0.0552, -1.5266, 1.6064, 0.0482, 1.4824, 0.3041], a=1.2, v=0.6)
  movej([0.0564, -1.5369, 1.5977, 0.0368, 1.477, 0.3066], a=1.2, v=0.6)
  movej([0.0576, -1.5476, 1.5887, 0.0249, 1.4731, 0.3091], a=1.2, v=0.6)
  movej([0.0588, -1.5587, 1.5794, 0.0125, 1.4708, 0.3116], a=1.2, v=0.6)
  movej([0.06, -1.57, 1.57, 0.0, 1.47, 0.3142], a=1.2, v=0.6)
  movej([0.0612, -1.5813, 1.5606, -0.0125, 1.4708, 0.3167], a=1.2, v=0.6)
  movej([0.0624, -1.5924, 1.5513, -0.0249, 1.4731, 0.3192], a=1.2, v=0.6)
  movej([0.0636, -1.6031, 1.5423, -0.0368, 1.477, 0.3217], a=1.2, v=0.6)
  movej([0.0648, -1.6134, 1.5336, -0.0482, 1.4824, 0.3242], a=1.2, v=0.6)
  movej([0.066, -1.6229, 1.5255, -0.0588, 1.4891, 0.3267], a=1.2, v=0.6)
  movej([0.0672, -1.6316, 1.5179, -0.0685, 1.4971, 0.3292], a=1.2, v=0.6)
  movej([0.0684, -1.6393, 1.511, -0.0771, 1.5063, 0.3318], a=1.2, v=0.6)
  movej([0.0696, -1.646, 1.5049, -0.0844, 1.5164, 0.3343], a=1.2, v=0.6)
  movej([0.0708, -1.6514, 1.4996, -0.0905, 1.5274, 0.3368], a=1.2, v=0.6)
  movej([0.072, -1.6556, 1.4953, -0.0951, 1.5391, 0.3393], a=1.2, v=0.6)
  movej([0.0732, -1.6584, 1.4919, -0.0982, 1.5513, 0.3418], a=1.2, v=0.6)
  movej([0.0744, -1.6598, 1.4896, -0.0998, 1.5637, 0.3443], a=1.2, v=0.6)
  movej([0.0756, -1.6598, 1.4882, -0.0998, 1.5763, 0.3468], a=1.2, v=0.6)
  movej([0.0768, -1.6584, 1.4879, -0.0982, 1.5887, 0.3493], a=1.2, v=0.6)
  movej([0.078, -1.6556, 1.4887, -0.0951, 1.6009, 0.3519], a=1.2, v=0.6)
  movej([0.0792, -1.6514, 1.4904, -0.0905, 1.6126, 0.3544], a=1.2, v=0.6)
  movej([0.0804, -1.646, 1.4931, -0.0844, 1.6236, 0.3569], a=1.2, v=0.6)
  movej([0.0816, -1.6393, 1.4966, -0.0771, 1.6337, 0.3594], a=1.2, v=0.6)
  movej([0.0828, -1.6316, 1.501, -0.0685, 1.6429, 0.3619], a=1.2, v=0.6)
  movej([0.084, -1.6229, 1.5062, -0.0588, 1.6509, 0.3644], a=1.2, v=0.6)
  movej([0.0852, -1.6134, 1.512, -0.0482, 1.6576, 0.3669], a=1.2, v=0.6)
  movej([0.0864, -1.6031, 1.5184, -0.0368, 1.663, 0.3695], a=1.2, v=0.6)
  movej([0.0876, -1.5924, 1.5253, -0.0249, 1.6669, 0.372], a=1.2, v=0.6)
  movej([0.0888, -1.5813, 1.5325, -0.0125, 1.6692, 0.3745], a=1.2, v=0.6)
end

execute_pattern()
